assets/virtual-reality-grey/VirtualRealityGrey7.svg

<svg xmlns="http://www.w3.org/2000/svg" data-name="Layer 3" viewBox="0 0 128 128"><path d="M91.066 51.9H77.4V26.485a7.139 7.139 0 00-7.131-7.13h-12.54a7.139 7.139 0 00-7.131 7.13V51.9H36.934a28.371 28.371 0 100 56.743h54.132a28.371 28.371 0 100-56.743zm-42.455 3.3h30.777v4.568a6.823 6.823 0 01-6.815 6.815H55.427a6.823 6.823 0 01-6.815-6.815zm9.117-32.547h12.54a3.837 3.837 0 013.832 3.832v17.88H53.9v-17.88a3.837 3.837 0 013.829-3.833zM53.9 47.662h20.2V51.9H53.9zM36.934 55.2h8.38v4.568a10.124 10.124 0 0010.113 10.113h17.146a10.124 10.124 0 0010.112-10.113V55.2h8.381a25.086 25.086 0 0124.991 23.425H11.943A25.086 25.086 0 0136.934 55.2zm54.132 50.148H36.934a25.087 25.087 0 01-24.991-23.426h104.114a25.087 25.087 0 01-24.991 23.426z"/><path d="M34.025 75.247a7.647 7.647 0 10-7.646-7.647 7.656 7.656 0 007.646 7.647zm0-12a4.35 4.35 0 11-4.349 4.353 4.355 4.355 0 014.349-4.349z"/><ellipse cx="42.852" cy="92.835" rx="4.891" ry="4.887"/><ellipse cx="84.81" cy="92.835" rx="5.139" ry="5.135"/><path d="M55.757 61.417h16.761a1.649 1.649 0 100-3.3H55.757a1.649 1.649 0 100 3.3z"/></svg>

<svg id="Layer_3" data-name="Layer 3" xmlns="http://www.w3.org/2000/svg" viewBox="0 0 128 128"><title>Artboard 102</title><path d="M91.066,51.9H77.4V26.485a7.139,7.139,0,0,0-7.131-7.13H57.729a7.139,7.139,0,0,0-7.131,7.13V51.9H36.934a28.371,28.371,0,1,0,0,56.743H91.066a28.371,28.371,0,1,0,0-56.743ZM48.611,55.2H79.388v4.568a6.823,6.823,0,0,1-6.815,6.815H55.427a6.823,6.823,0,0,1-6.815-6.815Zm9.117-32.547H70.268A3.837,3.837,0,0,1,74.1,26.485v17.88H53.9V26.485A3.837,3.837,0,0,1,57.729,22.652ZM53.9,47.662H74.1V51.9H53.9ZM36.934,55.2h8.38v4.568A10.124,10.124,0,0,0,55.427,69.881H72.573A10.124,10.124,0,0,0,82.685,59.768V55.2h8.381a25.086,25.086,0,0,1,24.991,23.425H11.943A25.086,25.086,0,0,1,36.934,55.2Zm54.132,50.148H36.934A25.087,25.087,0,0,1,11.943,81.922H116.057A25.087,25.087,0,0,1,91.066,105.348Z"/><path d="M34.025,75.247A7.647,7.647,0,1,0,26.379,67.6,7.656,7.656,0,0,0,34.025,75.247Zm0-12A4.35,4.35,0,1,1,29.676,67.6,4.355,4.355,0,0,1,34.025,63.251Z"/><ellipse cx="42.852" cy="92.835" rx="4.891" ry="4.887"/><ellipse cx="84.81" cy="92.835" rx="5.139" ry="5.135"/><path d="M55.757,61.417H72.518a1.649,1.649,0,1,0,0-3.3H55.757a1.649,1.649,0,1,0,0,3.3Z"/></svg>
